X:1
T:Seymour, 77.77
T:From Carl Maria von Weber, 1826
T:Seymour, 77.77
T:Public Domain
C:From Carl Maria von Weber, 1826
Z:Public Domain
%%score ( 1 2 ) 3
L:1/8
M:4/4
K:F
V:1 treble 
V:2 treble 
V:3 bass 
V:1
 [FA]2 [FG]2 [FB]2 [FA]2 | [^Gd]2 ([Ac][FA]) [E=G]4 | [FA]2 [FA]2 [EA]2 [_EA]2 | %3
 [DB]2 [CE]2 [CF]4 | [FA]2 [FG]2 [FB]2 [FA]2 | [^Gd]2 ([Ac][FA]) [E=G]4 | [FA]2 [Ac]2 (cB)(AG) | %7
 [CF]2 [CE]2 [CF]4 |] %8
V:2
 x8 | x8 | x8 | x8 | x8 | x8 | x4 G2 D2 | x8 |] %8
V:3
 [F,C]2 [F,B,]2 [F,D]2 [F,C]2 | [F,=B,]2 [F,C]2 [C,C]4 | [F,C]2 [D,D]2 [A,,_D]2 [^F,C]2 | %3
 [G,B,]2 [C,B,]2 [F,A,]4 | [F,C]2 [F,B,]2 [F,D]2 [F,C]2 | [F,=B,]2 [F,C]2 [C,C]4 | %6
 [F,C]2 [^F,_E]2 [G,D]2 [B,,B,]2 | [C,A,]2 [C,G,]2 [F,A,]4 |] %8

